usr/share/icons/biglinux-icons-material/24/actions/view-institution-delete.svg

<svg xmlns="http://www.w3.org/2000/svg" viewBox="0 0 24 24" width="24" height="24">
  <defs id="defs3051">
    <style type="text/css" id="current-color-scheme">
      .ColorScheme-Text {
        color:#dedede;
      }
      .ColorScheme-NegativeText {
        color:#da4453;
      }
      </style>
  </defs>
  <g transform="translate(1,1)">
    <path d="m11 3-8 4.6230469v1.3769531h1v9h-1v1h10v-5h-4v4h-1v-9h6v5h1v-5h2v5h1v-5h1v-1.3769531zm0 1.15625 6.650391 3.8417969h-13.300782zm-6 4.84375h2v9h-2z" style="fill:currentColor;fill-opacity:1;stroke:none" class="ColorScheme-Text"/>
    <path d="m14.000001 16h4.999999v1h-4.999999z" style="fill:currentColor;fill-opacity:1;stroke:none" class="ColorScheme-NegativeText"/>
  </g>
</svg>

<svg xmlns="http://www.w3.org/2000/svg" width="24" height="24"><path d="M11 3 3 7.623V9h1v9H3v1h10v-5H9v4H8V9h6v5h1V9h2v5h1V9h1V7.623zm0 1.156 6.65 3.842H4.35zM5 9h2v9H5z" style="fill:currentColor;fill-opacity:1;stroke:none;color:#dedede" transform="translate(1 1)"/><path d="M14 16h5v1h-5z" style="fill:currentColor;fill-opacity:1;stroke:none;color:#da4453" transform="translate(1 1)"/></svg>
